img/reddit.svg

<?xml version="1.0" encoding="UTF-8"?>
<svg width="60px" height="60px" viewBox="0 0 60 60" version="1.1" xmlns="http://www.w3.org/2000/svg" xmlns:xlink="http://www.w3.org/1999/xlink">
    <!-- Generator: Sketch 47.1 (45422) - http://www.bohemiancoding.com/sketch -->
    <title>icon/60/Reddit</title>
    <desc>Created with Sketch.</desc>
    <defs></defs>
    <g id="Assets" stroke="none" stroke-width="1" fill="none" fill-rule="evenodd">
        <g id="icon/60/Reddit" fill="#858B9A">
            <path d="M35.1203138,19.8035553 C35.6103395,20.6163993 36.5016874,21.16 37.52,21.16 C39.0663973,21.16 40.32,19.9063973 40.32,18.36 C40.32,16.8136027 39.0663973,15.56 37.52,15.56 C35.9743512,15.56 34.7212137,16.8123894 34.7200009,18.3577546 L29.8389841,19.6244749 L29.395708,24.6093077 C26.1238908,24.7102966 23.1519587,25.6273322 20.8785117,27.0792909 C20.5516155,25.6590562 19.2794856,24.6 17.76,24.6 C15.9926888,24.6 14.56,26.0326888 14.56,27.8 C14.56,29.3757932 15.6990014,30.6855584 17.1986323,30.9509236 C16.6816942,31.9656285 16.4,33.0595741 16.4,34.2 C16.4,39.5024 22.4896,43.8 30,43.8 C37.5104,43.8 43.6,39.5024 43.6,34.2 C43.6,33.0595741 43.3183058,31.9656285 42.8013677,30.9509236 C44.3009986,30.6855584 45.44,29.3757932 45.44,27.8 C45.44,26.0326888 44.0073112,24.6 42.24,24.6 C40.7205144,24.6 39.4483845,25.6590562 39.1214883,27.0792909 C36.9168684,25.6712893 34.0554156,24.7663121 30.9006126,24.6207159 L31.2394159,20.8107251 L35.1203138,19.8035553 Z M30,60 C13.4314575,60 0,46.5685425 0,30 C0,13.4314575 13.4314575,0 30,0 C46.5685425,0 60,13.4314575 60,30 C60,46.5685425 46.5685425,60 30,60 Z M29.9968,40.5328 L29.9968,40.5312 C28.197266,40.5296799 26.4238154,40.1008492 24.8224,39.28 C24.6691146,39.2008158 24.5191233,39.1154114 24.3728,39.024 C23.7744,38.6192 23.6784,37.8352 24.1728,37.3232 C24.6224,36.8576 25.4128,36.7872 25.9616,37.16 C27.6544,38.3376 30.7584,38.9264 34.1344,37.096 C34.7152,36.7712 35.4912,36.9072 35.8944,37.4112 C36.352,37.9648 36.1584,38.7328 35.52,39.088 C33.7024,40.08 31.8416,40.5328 29.9968,40.5328 L29.9968,40.5328 Z M24.56,34.04 C23.0577855,34.04 21.84,32.8222145 21.84,31.32 C21.84,29.8177855 23.0577855,28.6 24.56,28.6 C26.0622145,28.6 27.28,29.8177855 27.28,31.32 C27.28,32.8222145 26.0622145,34.04 24.56,34.04 Z M35.44,34.04 C33.9377855,34.04 32.72,32.8222145 32.72,31.32 C32.72,29.8177855 33.9377855,28.6 35.44,28.6 C36.9422145,28.6 38.16,29.8177855 38.16,31.32 C38.16,32.8222145 36.9422145,34.04 35.44,34.04 Z" id="Combined-Shape"></path>
        </g>
    </g>
</svg>

<svg width="60" height="60" viewBox="0 0 60 60" xmlns="http://www.w3.org/2000/svg"><path d="M35.12 19.804a2.8 2.8 0 10-.4-1.446l-4.881 1.266-.443 4.985c-3.272.101-6.244 1.018-8.517 2.47a3.201 3.201 0 10-3.68 3.872A7.114 7.114 0 0016.4 34.2c0 5.302 6.09 9.6 13.6 9.6s13.6-4.298 13.6-9.6c0-1.14-.282-2.234-.799-3.25a3.2 3.2 0 10-3.68-3.87c-2.204-1.409-5.066-2.314-8.22-2.46l.338-3.81 3.881-1.006zM30 60C13.431 60 0 46.569 0 30 0 13.431 13.431 0 30 0c16.569 0 30 13.431 30 30 0 16.569-13.431 30-30 30zm-.003-19.467v-.002c-1.8-.001-3.573-.43-5.175-1.251a6.344 6.344 0 01-.45-.256c-.598-.405-.694-1.189-.2-1.7.45-.466 1.24-.537 1.79-.164 1.692 1.178 4.796 1.766 8.172-.064.581-.325 1.357-.189 1.76.315.458.554.264 1.322-.374 1.677-1.818.992-3.678 1.445-5.523 1.445zM24.56 34.04a2.72 2.72 0 110-5.44 2.72 2.72 0 010 5.44zm10.88 0a2.72 2.72 0 110-5.44 2.72 2.72 0 010 5.44z" fill="#858B9A" fill-rule="evenodd"/></svg>
